images/seat6.svg

<svg width="140" height="88" viewBox="0 0 140 88" fill="none" xmlns="http://www.w3.org/2000/svg">
<path fill-rule="evenodd" clip-rule="evenodd" d="M15.8444 11.1018H27.3324C29.941 11.1018 32.0749 13.2357 32.0749 15.8442V27.3322C32.0749 29.9408 29.941 32.0747 27.3324 32.0747H15.8444C13.2359 32.0747 11.1019 29.9408 11.1019 27.3322V15.8442C11.1019 13.2357 13.2359 11.1018 15.8444 11.1018ZM6.47396 83.7874C6.47396 85.575 5.02467 87.0243 3.23698 87.0243C1.44929 87.0243 0 85.575 0 83.7874V11.8167C0 8.58873 1.29375 5.64614 3.37773 3.50665C5.48503 1.34298 8.39318 0 11.5934 0H136.438C138.226 0 139.675 1.44929 139.675 3.23698C139.675 5.02467 138.226 6.47396 136.438 6.47396H11.5934C10.1977 6.47396 8.92731 7.06167 8.00554 8.00815C7.06098 8.97794 6.47396 10.3261 6.47396 11.8168V83.7875V83.7874ZM120.709 11.1018H132.197C134.806 11.1018 136.94 13.2357 136.94 15.8442V27.3322C136.94 29.9408 134.806 32.0747 132.197 32.0747H120.709C118.101 32.0747 115.967 29.9408 115.967 27.3322V15.8442C115.967 13.2357 118.101 11.1018 120.709 11.1018ZM94.493 11.1018H105.981C108.59 11.1018 110.723 13.2357 110.723 15.8442V27.3322C110.723 29.9408 108.59 32.0747 105.981 32.0747H94.493C91.8844 32.0747 89.7505 29.9408 89.7505 27.3322V15.8442C89.7505 13.2357 91.8844 11.1018 94.493 11.1018ZM68.2768 11.1018H79.7648C82.3734 11.1018 84.5073 13.2357 84.5073 15.8442V27.3322C84.5073 29.9408 82.3734 32.0747 79.7648 32.0747H68.2768C65.6683 32.0747 63.5344 29.9408 63.5344 27.3322V15.8442C63.5344 13.2357 65.6683 11.1018 68.2768 11.1018ZM42.0607 11.1018H53.5487C56.1573 11.1018 58.2912 13.2357 58.2912 15.8442V27.3322C58.2912 29.9408 56.1573 32.0747 53.5487 32.0747H42.0607C39.4522 32.0747 37.3182 29.9408 37.3182 27.3322V15.8442C37.3182 13.2357 39.4522 11.1018 42.0607 11.1018ZM15.8446 63.5342H27.3326C29.9411 63.5342 32.0751 65.6681 32.0751 68.2767V79.7647C32.0751 82.3732 29.9411 84.5071 27.3326 84.5071H15.8446C13.236 84.5071 11.1021 82.3732 11.1021 79.7647V68.2767C11.1021 65.6681 13.236 63.5342 15.8446 63.5342ZM15.8446 37.3181H27.3326C29.9411 37.3181 32.0751 39.452 32.0751 42.0605V53.5485C32.0751 56.1571 29.9411 58.291 27.3326 58.291H15.8446C13.236 58.291 11.1021 56.1571 11.1021 53.5485V42.0605C11.1021 39.452 13.236 37.3181 15.8446 37.3181Z" fill="white"/>
</svg>

<svg width="140" height="88" fill="none" xmlns="http://www.w3.org/2000/svg"><path fill-rule="evenodd" clip-rule="evenodd" d="M15.844 11.102h11.488a4.756 4.756 0 014.743 4.742v11.488a4.756 4.756 0 01-4.743 4.743H15.844a4.756 4.756 0 01-4.742-4.743V15.844a4.756 4.756 0 014.742-4.742zm-9.37 72.685a3.237 3.237 0 01-6.474 0v-71.97c0-3.228 1.294-6.17 3.378-8.31C5.485 1.343 8.393 0 11.593 0h124.845a3.237 3.237 0 110 6.474H11.593a5.001 5.001 0 00-3.587 1.534 5.444 5.444 0 00-1.532 3.809v71.97zm114.235-72.685h11.488a4.756 4.756 0 014.743 4.742v11.488a4.756 4.756 0 01-4.743 4.743h-11.488a4.756 4.756 0 01-4.742-4.743V15.844a4.756 4.756 0 014.742-4.742zm-26.216 0h11.488a4.755 4.755 0 014.742 4.742v11.488a4.755 4.755 0 01-4.742 4.743H94.493a4.756 4.756 0 01-4.742-4.743V15.844a4.756 4.756 0 014.742-4.742zm-26.216 0h11.488a4.756 4.756 0 014.742 4.742v11.488a4.756 4.756 0 01-4.742 4.743H68.277a4.756 4.756 0 01-4.743-4.743V15.844a4.756 4.756 0 014.743-4.742zm-26.216 0h11.488a4.756 4.756 0 014.742 4.742v11.488a4.756 4.756 0 01-4.742 4.743H42.06a4.756 4.756 0 01-4.743-4.743V15.844a4.756 4.756 0 014.743-4.742zM15.845 63.534h11.488a4.756 4.756 0 014.742 4.743v11.488a4.756 4.756 0 01-4.742 4.742H15.845a4.756 4.756 0 01-4.743-4.742V68.277a4.756 4.756 0 014.743-4.743zm0-26.216h11.488a4.756 4.756 0 014.742 4.742v11.488a4.756 4.756 0 01-4.742 4.743H15.845a4.756 4.756 0 01-4.743-4.742V42.06a4.756 4.756 0 014.743-4.742z" fill="#fff"/></svg>
